images/social/linkedin.svg

<svg xmlns="http://www.w3.org/2000/svg" width="220.02" height="219" viewBox="0 0 220.02 219"><defs><style>.a{fill:#fff;}</style></defs><title>linkedin</title><path class="a" d="M14.67,0H204.92C213.2.55,220,8,220,16.27V201.74c.46,8.55-6.31,16.54-14.86,17.26H14.88C7.23,218.52.46,212.06,0,204.34V14.71C.41,7,7.09.62,14.67,0M44.41,30.57c-9.39,2-16.11,12-14.25,21.51C31.48,61.4,40.62,68.73,50,67.82c10.7-.19,19.44-11,17.62-21.51C66.43,35.54,54.86,27.78,44.41,30.57m72.44,66.15c.06-4.9.1-9.8,0-14.69-10.42,0-20.85.17-31.26-.09q-.09,52.41,0,104.8c10.87-.17,21.75-.1,32.62,0q0-25.35,0-50.71c.08-7.46.23-15.67,4.95-21.88,4.08-5.27,11.34-6.54,17.62-5.79a13.59,13.59,0,0,1,10.65,7.09c3.14,6,3.1,13,3.14,19.53,0,17.27,0,34.53,0,51.79,10.89-.16,21.78-.11,32.67,0q0-30.33,0-60.65c-.24-9.35-1-18.95-4.71-27.64a29,29,0,0,0-14-15c-7.6-3.65-16.27-4.39-24.58-3.81a34.83,34.83,0,0,0-27.18,17.09M32.5,81.94q-.09,52.41,0,104.82c10.94-.21,21.87,0,32.81-.09-.06-34.91,0-69.83,0-104.74C54.35,81.94,43.43,81.91,32.5,81.94Z"/></svg>

<?xml version="1.0" encoding="UTF-8" ?>
<!DOCTYPE svg PUBLIC "-//W3C//DTD SVG 1.1//EN" "http://www.w3.org/Graphics/SVG/1.1/DTD/svg11.dtd">
<svg width="220pt" height="219pt" viewBox="0 0 220 219" version="1.1" xmlns="http://www.w3.org/2000/svg">
<g>
<path fill="#fff" opacity="1.00" d=" M 14.67 0.00 L 204.92 0.00 C 213.20 0.55 219.97 8.00 220.00 16.27 L 220.00 201.74 C 220.46 210.29 213.69 218.28 205.14 219.00 L 14.88 219.00 C 7.23 218.52 0.46 212.06 0.00 204.34 L 0.00 14.71 C 0.41 7.03 7.09 0.62 14.67 0.00 M 44.41 30.57 C 35.02 32.61 28.30 42.62 30.16 52.08 C 31.48 61.40 40.62 68.73 50.03 67.82 C 60.73 67.63 69.47 56.82 67.65 46.31 C 66.43 35.54 54.86 27.78 44.41 30.57 M 116.85 96.72 C 116.91 91.82 116.95 86.92 116.87 82.03 C 106.45 82.04 96.02 82.20 85.61 81.94 C 85.55 116.88 85.53 151.81 85.61 186.74 C 96.48 186.57 107.36 186.64 118.23 186.71 C 118.22 169.81 118.20 152.90 118.25 136.00 C 118.33 128.54 118.48 120.33 123.20 114.12 C 127.28 108.85 134.54 107.58 140.82 108.33 C 145.23 108.80 149.44 111.41 151.47 115.42 C 154.61 121.39 154.57 128.38 154.61 134.95 C 154.61 152.22 154.57 169.48 154.63 186.74 C 165.52 186.58 176.41 186.63 187.30 186.72 C 187.31 166.50 187.32 146.28 187.29 126.07 C 187.05 116.72 186.30 107.12 182.58 98.43 C 179.88 92.00 174.94 86.46 168.61 83.44 C 161.01 79.79 152.34 79.05 144.03 79.63 C 132.90 80.54 122.40 86.97 116.85 96.72 M 32.50 81.94 C 32.44 116.88 32.42 151.82 32.51 186.76 C 43.45 186.55 54.38 186.72 65.32 186.67 C 65.26 151.76 65.34 116.84 65.28 81.93 C 54.35 81.94 43.43 81.91 32.50 81.94 Z" />
</g>
</svg>
